X:1
T:Sardis, 87.87
T:Sardis, 87.87
T:Arranged from Ludwig van Beethoven
T:Public Domain Courtesy of the Cyber Hymnal™
C:Arranged from Ludwig van Beethoven
Z:Public Domain
Z:Courtesy of the Cyber Hymnal™
%%score ( 1 2 ) 3
L:1/8
Q:1/4=110
M:4/4
K:F
V:1 treble 
V:2 treble 
V:3 bass 
V:1
 [CF]2 [CE]2 [CF]3 [CG] | [FA]2 ([Ac][GB]) [FA]2 [EG]2 | [EA]2 [EA]2 [DA]3 [Ad] | %3
 [Gc]2 [F=B]2 [Ec]4 | [Gc]2 [F=B]2 [G_B]2 [FA]2 | [DG]3 [DF] [CF]2 [CE]2 | %6
 [CF]2 [_E^F]2 [DG]2 [=Fd]2 | F2 (AG) F4 |] %8
V:2
 x8 | x8 | x8 | x8 | x8 | x8 | x8 | F2 E2 F4 |] %8
V:3
 [F,A,]2 [G,B,]2 [A,C]3 [E,B,] | [F,A,]2 [B,,D]2 [C,C]2 [C,C]2 | [A,^C]2 [G,C]2 [F,A,]3 [D,F] | %3
 [G,E]2 [G,,D]2 [C,C]4 | [C,E]2 [D,D]2 [E,C]2 [F,C]2 | [B,,B,]3 [=B,,_A,] [C,G,]2 [C,G,]2 | %6
 [A,,F,]2 [A,,C]2 [B,,B,]2 [=B,,^G,]2 | [C,A,]2 [C,B,]2 [F,A,]4 |] %8

